fs/building_skyscraper_16_regular.svg

<svg viewBox="0 0 16 16" fill="none" xmlns="http://www.w3.org/2000/svg" height="1em" width="1em">
  <path d="M6 7.5C6 7.77614 5.77614 8 5.5 8C5.22386 8 5 7.77614 5 7.5C5 7.22386 5.22386 7 5.5 7C5.77614 7 6 7.22386 6 7.5ZM7.5 8C7.77614 8 8 7.77614 8 7.5C8 7.22386 7.77614 7 7.5 7C7.22386 7 7 7.22386 7 7.5C7 7.77614 7.22386 8 7.5 8ZM6 9.5C6 9.77614 5.77614 10 5.5 10C5.22386 10 5 9.77614 5 9.5C5 9.22386 5.22386 9 5.5 9C5.77614 9 6 9.22386 6 9.5ZM7.5 10C7.77614 10 8 9.77614 8 9.5C8 9.22386 7.77614 9 7.5 9C7.22386 9 7 9.22386 7 9.5C7 9.77614 7.22386 10 7.5 10ZM12 11.5C12 11.7761 11.7761 12 11.5 12C11.2239 12 11 11.7761 11 11.5C11 11.2239 11.2239 11 11.5 11C11.7761 11 12 11.2239 12 11.5ZM11.5 10C11.7761 10 12 9.77614 12 9.5C12 9.22386 11.7761 9 11.5 9C11.2239 9 11 9.22386 11 9.5C11 9.77614 11.2239 10 11.5 10ZM5.5 1C5.22386 1 5 1.22386 5 1.5V3H4.5C4.22386 3 4 3.22386 4 3.5V5.15035C3.4103 5.41715 3 6.01066 3 6.7V13.5C3 13.7761 3.22386 14 3.5 14H13.5C13.7761 14 14 13.7761 14 13.5V10.2C14 8.15655 12.3435 6.5 10.3 6.5H9.98836C9.91773 5.89729 9.53182 5.39096 9 5.15035V3.5C9 3.22386 8.77614 3 8.5 3H8V1.5C8 1.22386 7.77614 1 7.5 1H5.5ZM8 5H5V4H8V5ZM9 6.7V13H8V11.9C8 11.4029 7.59706 11 7.1 11H5.9C5.40294 11 5 11.4029 5 11.9V13H4V6.7C4 6.3134 4.3134 6 4.7 6H8.3C8.6866 6 9 6.3134 9 6.7ZM6 13V12H7V13H6ZM10 13V7.5H10.3C11.7912 7.5 13 8.70883 13 10.2V13H10ZM7 3H6V2H7V3Z" fill="#212121"/>
</svg>

<svg viewBox="0 0 16 16" fill="none" xmlns="http://www.w3.org/2000/svg" height="1em" width="1em">
  <path d="M6 7.5a.5.5 0 1 1-1 0 .5.5 0 0 1 1 0Zm1.5.5a.5.5 0 1 0 0-1 .5.5 0 0 0 0 1ZM6 9.5a.5.5 0 1 1-1 0 .5.5 0 0 1 1 0Zm1.5.5a.5.5 0 1 0 0-1 .5.5 0 0 0 0 1Zm4.5 1.5a.5.5 0 1 1-1 0 .5.5 0 0 1 1 0Zm-.5-1.5a.5.5 0 1 0 0-1 .5.5 0 0 0 0 1Zm-6-9a.5.5 0 0 0-.5.5V3h-.5a.5.5 0 0 0-.5.5v1.65A1.7 1.7 0 0 0 3 6.7v6.8a.5.5 0 0 0 .5.5h10a.5.5 0 0 0 .5-.5v-3.3a3.7 3.7 0 0 0-3.7-3.7h-.312A1.702 1.702 0 0 0 9 5.15V3.5a.5.5 0 0 0-.5-.5H8V1.5a.5.5 0 0 0-.5-.5h-2ZM8 5H5V4h3v1Zm1 1.7V13H8v-1.1a.9.9 0 0 0-.9-.9H5.9a.9.9 0 0 0-.9.9V13H4V6.7a.7.7 0 0 1 .7-.7h3.6a.7.7 0 0 1 .7.7ZM6 13v-1h1v1H6Zm4 0V7.5h.3a2.7 2.7 0 0 1 2.7 2.7V13h-3ZM7 3H6V2h1v1Z" fill="#212121"/>
</svg>
